X: 64
T:Skylark (#174), The
M:6/8
L:1/8
S:Pat. Dunne manuscript
K:G
A/2B/2|cAA eAA|dBG GAB|cAA eAA|dBG A2 B|
cAA ece|dcd GBd|f/2g/2af gfe|dBG A2:|
|:B|def g2 f|edc Bcd|efg aga|bgg e2 f|
gfa gfe|dcd Bcd|cBc age|dBG A2:||

